assets/dude/Did–Dolly.svg

<svg width="236" height="109" viewBox="0 0 236 109" fill="none" xmlns="http://www.w3.org/2000/svg">
<path d="M55.6606 0.820068H49.5006C40.6806 0.820068 32.5606 4.60007 26.8206 10.3401C25.9806 11.1801 25.5606 11.7401 25.0006 11.7401C24.4406 11.7401 24.0206 11.1801 23.1806 10.0601C20.8006 6.98007 17.1606 5.02007 12.9606 5.02007C5.68057 5.02007 0.0805664 10.9001 0.0805664 18.1801C0.0805664 23.6401 3.44057 26.3001 3.44057 39.7401C3.44057 40.4401 4.00057 41.0001 4.70057 41.0001H18.5606C19.2606 41.0001 19.8206 41.5601 19.8206 42.2601V67.4601C19.8206 68.1601 19.2606 68.7201 18.5606 68.7201H4.70057C4.00057 68.7201 3.44057 69.2801 3.44057 69.9801C3.44057 83.4201 0.0805664 86.0801 0.0805664 91.5401C0.0805664 98.8201 5.68057 104.7 12.9606 104.7C17.1606 104.7 20.8006 102.74 23.1806 99.6601C24.0206 98.5401 24.4406 97.9801 25.0006 97.9801C25.5606 97.9801 25.9806 98.5401 26.8206 99.3801C32.5606 105.12 40.6806 108.9 49.5006 108.9H55.6606C73.1606 108.9 87.3006 95.3201 87.3006 73.7601V35.9601C87.3006 14.4001 73.1606 0.820068 55.6606 0.820068ZM31.1606 68.7201C30.4606 68.7201 29.9006 68.1601 29.9006 67.4601V42.2601C29.9006 41.5601 30.4606 41.0001 31.1606 41.0001H68.4006C73.3006 41.0001 77.2206 44.9201 77.2206 49.8201V59.9001C77.2206 64.8001 73.3006 68.7201 68.4006 68.7201H31.1606Z" fill="#FF1C31"/>
<path d="M138.126 68.7201H124.266C123.566 68.7201 123.006 68.1601 123.006 67.4601V42.2601C123.006 41.5601 123.566 41.0001 124.266 41.0001H138.126C138.826 41.0001 139.386 40.4401 139.386 39.7401C139.386 26.3001 142.746 23.6401 142.746 18.1801C142.746 10.9001 137.146 5.02007 129.866 5.02007C125.666 5.02007 122.026 6.98007 119.646 10.0601C118.666 11.3201 118.386 12.8601 117.966 12.8601C117.546 12.8601 117.266 11.3201 116.286 10.0601C113.906 6.98007 110.266 5.02007 106.066 5.02007C98.786 5.02007 93.186 10.9001 93.186 18.1801C93.186 23.6401 96.546 26.3001 96.546 39.7401C96.546 40.4401 97.106 41.0001 97.806 41.0001H111.666C112.366 41.0001 112.926 41.5601 112.926 42.2601V67.4601C112.926 68.1601 112.366 68.7201 111.666 68.7201H97.806C97.106 68.7201 96.546 69.2801 96.546 69.9801C96.546 83.4201 93.186 86.0801 93.186 91.5401C93.186 98.8201 98.786 104.7 106.066 104.7C110.266 104.7 113.906 102.74 116.286 99.6601C117.266 98.4001 117.546 96.8601 117.966 96.8601C118.386 96.8601 118.666 98.4001 119.646 99.6601C122.026 102.74 125.666 104.7 129.866 104.7C137.146 104.7 142.746 98.8201 142.746 91.5401C142.746 86.0801 139.386 83.4201 139.386 69.9801C139.386 69.2801 138.826 68.7201 138.126 68.7201Z" fill="#FF1C31"/>
<path d="M204.274 0.820068H198.114C189.294 0.820068 181.174 4.60007 175.434 10.3401C174.594 11.1801 174.174 11.7401 173.614 11.7401C173.054 11.7401 172.634 11.1801 171.794 10.0601C169.414 6.98007 165.774 5.02007 161.574 5.02007C154.294 5.02007 148.694 10.9001 148.694 18.1801C148.694 23.6401 152.054 26.3001 152.054 39.7401C152.054 40.4401 152.614 41.0001 153.314 41.0001H167.174C167.874 41.0001 168.434 41.5601 168.434 42.2601V67.4601C168.434 68.1601 167.874 68.7201 167.174 68.7201H153.314C152.614 68.7201 152.054 69.2801 152.054 69.9801C152.054 83.4201 148.694 86.0801 148.694 91.5401C148.694 98.8201 154.294 104.7 161.574 104.7C165.774 104.7 169.414 102.74 171.794 99.6601C172.634 98.5401 173.054 97.9801 173.614 97.9801C174.174 97.9801 174.594 98.5401 175.434 99.3801C181.174 105.12 189.294 108.9 198.114 108.9H204.274C221.774 108.9 235.914 95.3201 235.914 73.7601V35.9601C235.914 14.4001 221.774 0.820068 204.274 0.820068ZM179.774 68.7201C179.074 68.7201 178.514 68.1601 178.514 67.4601V42.2601C178.514 41.5601 179.074 41.0001 179.774 41.0001H217.014C221.914 41.0001 225.834 44.9201 225.834 49.8201V59.9001C225.834 64.8001 221.914 68.7201 217.014 68.7201H179.774Z" fill="#FF1C31"/>
</svg>

<svg xmlns="http://www.w3.org/2000/svg" fill="none" viewBox="0 0 236 109"><path fill="#FF1C31" d="M55.66.82H49.5c-8.82 0-16.94 3.78-22.68 9.52-.84.84-1.26 1.4-1.82 1.4s-.98-.56-1.82-1.68c-2.38-3.08-6.02-5.04-10.22-5.04C5.68 5.02.08 10.9.08 18.18c0 5.46 3.36 8.12 3.36 21.56 0 .7.56 1.26 1.26 1.26h13.86c.7 0 1.26.56 1.26 1.26v25.2c0 .7-.56 1.26-1.26 1.26H4.7c-.7 0-1.26.56-1.26 1.26 0 13.44-3.36 16.1-3.36 21.56 0 7.28 5.6 13.16 12.88 13.16 4.2 0 7.84-1.96 10.22-5.04.84-1.12 1.26-1.68 1.82-1.68s.98.56 1.82 1.4c5.74 5.74 13.86 9.52 22.68 9.52h6.16c17.5 0 31.64-13.58 31.64-35.14v-37.8C87.3 14.4 73.16.82 55.66.82zm-24.5 67.9c-.7 0-1.26-.56-1.26-1.26v-25.2c0-.7.56-1.26 1.26-1.26H68.4c4.9 0 8.82 3.92 8.82 8.82V59.9c0 4.9-3.92 8.82-8.82 8.82H31.16zM138.126 68.72h-13.86c-.7 0-1.26-.56-1.26-1.26v-25.2c0-.7.56-1.26 1.26-1.26h13.86c.7 0 1.26-.56 1.26-1.26 0-13.44 3.36-16.1 3.36-21.56 0-7.28-5.6-13.16-12.88-13.16-4.2 0-7.84 1.96-10.22 5.04-.98 1.26-1.26 2.8-1.68 2.8-.42 0-.7-1.54-1.68-2.8-2.38-3.08-6.02-5.04-10.22-5.04-7.28 0-12.88 5.88-12.88 13.16 0 5.46 3.36 8.12 3.36 21.56 0 .7.56 1.26 1.26 1.26h13.86c.7 0 1.26.56 1.26 1.26v25.2c0 .7-.56 1.26-1.26 1.26h-13.86c-.7 0-1.26.56-1.26 1.26 0 13.44-3.36 16.1-3.36 21.56 0 7.28 5.6 13.16 12.88 13.16 4.2 0 7.84-1.96 10.22-5.04.98-1.26 1.26-2.8 1.68-2.8.42 0 .7 1.54 1.68 2.8 2.38 3.08 6.02 5.04 10.22 5.04 7.28 0 12.88-5.88 12.88-13.16 0-5.46-3.36-8.12-3.36-21.56 0-.7-.56-1.26-1.26-1.26zM204.274.82h-6.16c-8.82 0-16.94 3.78-22.68 9.52-.84.84-1.26 1.4-1.82 1.4s-.98-.56-1.82-1.68c-2.38-3.08-6.02-5.04-10.22-5.04-7.28 0-12.88 5.88-12.88 13.16 0 5.46 3.36 8.12 3.36 21.56 0 .7.56 1.26 1.26 1.26h13.86c.7 0 1.26.56 1.26 1.26v25.2c0 .7-.56 1.26-1.26 1.26h-13.86c-.7 0-1.26.56-1.26 1.26 0 13.44-3.36 16.1-3.36 21.56 0 7.28 5.6 13.16 12.88 13.16 4.2 0 7.84-1.96 10.22-5.04.84-1.12 1.26-1.68 1.82-1.68s.98.56 1.82 1.4c5.74 5.74 13.86 9.52 22.68 9.52h6.16c17.5 0 31.64-13.58 31.64-35.14v-37.8c0-21.56-14.14-35.14-31.64-35.14zm-24.5 67.9c-.7 0-1.26-.56-1.26-1.26v-25.2c0-.7.56-1.26 1.26-1.26h37.24c4.9 0 8.82 3.92 8.82 8.82V59.9c0 4.9-3.92 8.82-8.82 8.82h-37.24z"/></svg>
